X:4199
T:Mill Mill O,Duet,Secundo JMT105
O:england
M:4/4
L:1/8
S:J.Moore,Tyneside,1841.(74)
R:Air
A:Northumbria
K:D
z2|dAFGF2F2|G>FGB cAFA|dAFA BAGF|G3AF2:|
z2|zA de (fefd)|gfedc3A|zA de (fgfe)|{e}d2de"pause"f2z2|
zA def3e/f/|gfed cAFA|dAFAA2{B}A/G/F|G3E/A/"pause"F2:|]
